src/assets/img/svg/posts.svg

<?xml version="1.0" encoding="utf-8"?>
<svg width="20px" height="20px" viewBox="0 0 20 20" version="1.1" xmlns:xlink="http://www.w3.org/1999/xlink" xmlns="http://www.w3.org/2000/svg">
  <defs>
    <path d="M17.6509 2.62789L17.6509 4.73421L13.4383 4.73421L13.4383 2.62789L17.6509 2.62789L17.6509 2.62789ZM7.1193 2.62789L7.1193 8.94684L2.90667 8.94684L2.90667 2.62789L7.1193 2.62789L7.1193 2.62789ZM17.6509 11.0532L17.6509 17.3721L13.4383 17.3721L13.4383 11.0532L17.6509 11.0532L17.6509 11.0532ZM7.1193 15.2658L7.1193 17.3721L2.90667 17.3721L2.90667 15.2658L7.1193 15.2658L7.1193 15.2658ZM19.7572 0.521579L11.3319 0.521579L11.3319 6.84053L19.7572 6.84053L19.7572 0.521579ZM9.22562 0.521579L0.800356 0.521579L0.800356 11.0532L9.22562 11.0532L9.22562 0.521579ZM19.7572 8.94684L11.3319 8.94684L11.3319 19.4784L19.7572 19.4784L19.7572 8.94684ZM9.22562 13.1595L0.800356 13.1595L0.800356 19.4784L9.22562 19.4784L9.22562 13.1595Z" id="path_11" />
    <clipPath id="mask_11">
      <use xlink:href="#path_11" />
    </clipPath>
  </defs>
  <g id="iconsicoutline-dashboard-24px">
    <path d="M17.6509 2.62789L17.6509 4.73421L13.4383 4.73421L13.4383 2.62789L17.6509 2.62789L17.6509 2.62789ZM7.1193 2.62789L7.1193 8.94684L2.90667 8.94684L2.90667 2.62789L7.1193 2.62789L7.1193 2.62789ZM17.6509 11.0532L17.6509 17.3721L13.4383 17.3721L13.4383 11.0532L17.6509 11.0532L17.6509 11.0532ZM7.1193 15.2658L7.1193 17.3721L2.90667 17.3721L2.90667 15.2658L7.1193 15.2658L7.1193 15.2658ZM19.7572 0.521579L11.3319 0.521579L11.3319 6.84053L19.7572 6.84053L19.7572 0.521579ZM9.22562 0.521579L0.800356 0.521579L0.800356 11.0532L9.22562 11.0532L9.22562 0.521579ZM19.7572 8.94684L11.3319 8.94684L11.3319 19.4784L19.7572 19.4784L19.7572 8.94684ZM9.22562 13.1595L0.800356 13.1595L0.800356 19.4784L9.22562 19.4784L9.22562 13.1595Z" id="iconsicoutline-dashboard-24px" fill="none" stroke="none" />
    <g clip-path="url(#mask_11)">
      <g id="🎨-color" transform="translate(-2 -2)">
        <path d="M0 0L24 0L24 24L0 24L0 0Z" id="BG" fill="#66788A" fill-rule="evenodd" stroke="none" />
      </g>
    </g>
  </g>
</svg>

<svg width="20" height="20" xmlns:xlink="http://www.w3.org/1999/xlink" xmlns="http://www.w3.org/2000/svg">
  <defs>
    <clipPath id="b11">
      <use xlink:href="#a11"/>
    </clipPath>
    <path d="M17.6509 2.62789v2.10632h-4.2126V2.62789h4.2126Zm-10.5316 0v6.31895H2.90667V2.62789H7.1193Zm10.5316 8.42531v6.3189h-4.2126v-6.3189h4.2126ZM7.1193 15.2658v2.1063H2.90667v-2.1063H7.1193ZM19.7572.521579h-8.4253V6.84053h8.4253V.521579Zm-10.53158 0H.800356V11.0532H9.22562V.521579ZM19.7572 8.94684h-8.4253V19.4784h8.4253V8.94684ZM9.22562 13.1595H.800356v6.3189H9.22562v-6.3189Z" id="a11"/>
  </defs>
  <path d="M17.6509 2.62789v2.10632h-4.2126V2.62789h4.2126Zm-10.5316 0v6.31895H2.90667V2.62789H7.1193Zm10.5316 8.42531v6.3189h-4.2126v-6.3189h4.2126ZM7.1193 15.2658v2.1063H2.90667v-2.1063H7.1193ZM19.7572.521579h-8.4253V6.84053h8.4253V.521579Zm-10.53158 0H.800356V11.0532H9.22562V.521579ZM19.7572 8.94684h-8.4253V19.4784h8.4253V8.94684ZM9.22562 13.1595H.800356v6.3189H9.22562v-6.3189Z" fill="none"/>
  <g clip-path="url(#b11)">
    <path d="M-2-2h24v24H-2V-2Z" fill="currentColor" fill-rule="evenodd"/>
  </g>
</svg>
